X:285
T:The Lord's My Shepherd
%%stretchlast false
M:3/2
L:1/4
K:C clef=C1
"^I"[CEc]2 [CGce] [Cceg] [Ccec']2 | [Cceg]2 "^IV"[F,cfa] "^IV¹"[A,cfc'] "^I"[Cceg]2 | "^V7²"[DGBf]2 "^I"[CGce] "^IV"[F,Ac] "^I²"[G,EGc]2 | "^V7"[G,FGB]2 "^I"[CEGc]4 | [CEc]2 [CGce] [Cceg] [Ccec']2 | [Cceg]2 "^IV"[F,cfa] "^IV¹"[A,cfc'] "^I"[Cceg]2 | "^V7²"[DGBf]2 "^I"[CGce] "^IV"[F,Ac] "^I²"[G,EGc]2 | "^V7"[G,FGB]2 "^I"[CEGc]4 | "^V"[G,GBd]2 "^I"[CGce] "^IV"[F,Ac] "^I"[CEGc]2 | "^V"[G,GBd]2 "^I"[CGce] "^IV"[F,Ac] "^I"[CEGc]2 | "^V"[G,GBd]2 "^I"[CGce] "^V7³"[FGBg] "^I¹"[EGcc']2 | "^IV"[FAfc']2 "^I"[CGec']4 | [CEc]2 [CGce] [Cceg] [Ccec']2 | [Cceg]2 "^IV"[F,cfa] "^IV¹"[A,cfc'] "^I"[Cceg]2 | "^V7²"[DGBf]2 "^I"[CGce] "^IV"[F,Ac] "^I²"[G,EGc]2 | "^V7"[G,FGB]2 "^I"[CEGc]6 |]
